cmd/conneroh/_static/dist/svg/warehouse.svg

<svg height="18" viewBox="0 0 18 18" width="18" xmlns="http://www.w3.org/2000/svg"><g fill="none" stroke="#fff" stroke-linecap="round" stroke-linejoin="round" stroke-width="2" transform="scale(.75)"><path d="m22 8.348958v11.651042c0 1.104167-.895833 2-2 2h-16c-1.104167 0-2-.895833-2-2v-11.651042c.005208-.8125.5-1.546875 1.260417-1.848958l8-3.197917c.473958-.192708 1.005208-.192708 1.479166 0l8 3.197917c.760417.302083 1.255209 1.036458 1.260417 1.848958m-16 9.651042h12m-12-4h12"/><path d="m6 10h12v12h-12zm0 0"/></g></svg>

<svg xmlns="http://www.w3.org/2000/svg" width="24" height="24" fill="none" stroke="white" stroke-linecap="round" stroke-linejoin="round" stroke-width="2">
    <path d="M22 8.35V20a2 2 0 0 1-2 2H4a2 2 0 0 1-2-2V8.35A2 2 0 0 1 3.26 6.5l8-3.2a2 2 0 0 1 1.48 0l8 3.2A2 2 0 0 1 22 8.35M6 18h12M6 14h12"/>
    <path d="M6 10h12v12H6z"/>
</svg>
